X:1
T:James Gibb editions
T:How calmly wakes the hallowed morn - Barnby
%%score [ ( 1 2 ) ( 3 4 ) ]
L:1/8
Q:1/4=66
M:4/4
K:Eb
V:1 treble nm="Midi_74"
V:2 treble 
V:3 bass nm="Midi_74"
V:4 bass 
V:1
!mp!"^C.M.""^How calmly wakes the hallowed morn""^Joseph Barnby\n(1838-96)" G2 | B3 A G2 A2 | %2
 F2 G2 E2 || F2 | G2 c2 =A2 d2 | d6 ||[M:4/4]!f! d2 | e2 d2 c2 B2 | =A2 _A2"^1"!<(! G2 || G2!<)! | %10
 B2!>(! AG!>)! F2 G2 | E6 || A4 G4 |] %13
V:2
 E2 | F2 D2 E2 E2 | E2 D2 E2 || B,2 | E2 G2 G2 ^F2 | G6 ||[M:4/4] _A2 | G2 B2 A2 G2 | ^F2 =F2 E2 || %9
 =E2 | =E2 C2 D2 D2 | E6 || E4 E4 |] %13
V:3
 B,2 | B,2 B,2 B,2 A,2 | C2 B,2 G,2 || B,2 |"^cresc." B,2 E2 D2 C2 | =B,6 ||[M:4/4] B,2 | %7
 B,2 E2 E2"^dim." E2 | E2 B,2 B,2 || B,2 | G,2 A,B, A,2 B,2 | G,6 || C4 B,4 |] %13
V:4
 E,2 | D,2 B,,2 E,2 C,2 | A,,2 B,,2 C,2 || D,2 | E,2 C,2 D,2 D,2 | G,6 ||[M:4/4] F,2 | %7
 E,2 G,,2 A,,2 B,,2 | C,2 D,2 E,2 || C,2 | F,2 F,2 B,,2 B,,2 | E,6 || A,,4 E,4 |] %13

